X:1
T: Glenlivet
C:Alexander Walker
R:Strathspey
Q: 128
K:Bm
M:4/4
L:1/16
|:C2|B,3^A, B,3D F4 FB3|AF3 D3F EC3 A,3C|B,3^A, B,3D F4 Ff3|e3c A3c BBB2 B2C2|
B,3^A, B,3D F4 FB3|AF3 D3F EC3 A,3C|B,3^A, B,3D F4 Ff3|e3c A3c BBB2 B2d2|
f3B fedc d3B c3A|BF3 F3E CA,3 A,3d|f3B fedc d3B c3A|F3f e3c BBB2 B3d|
f3B fedc d3B c3A|eA3 c3A a2A2 c3A|B3c d3e f3e fa3|e3c A3c BBB2 B2||
